libs/ui/packages/crypto-icons/src/svg/OX.svg

<svg width="24" height="24" viewBox="0 0 24 24" fill="none">
<path fill-rule="evenodd" clip-rule="evenodd" d="M12.6435 18.7504H11.3565C10.3905 18.7504 10.1168 17.8549 10.1168 17.1709C10.1168 16.4869 10.1655 16.1771 10.1655 15.8681C10.1655 15.3806 9.9195 14.1634 9.47325 13.6534C8.604 12.6596 8.0565 11.7694 8.0565 10.4779C7.3005 10.0871 5.964 9.72863 5.4495 9.14288C4.935 8.55713 4.5 7.72538 4.5 6.53588C4.5 6.23213 4.5645 5.80313 4.6935 5.24963C4.98975 6.17513 5.44575 6.80963 6.0615 7.15463C6.96225 7.66013 7.97775 8.03438 8.8455 8.03438H15.1545C16.0222 8.03438 17.037 7.65938 17.9385 7.15463C18.5535 6.80963 19.0103 6.17513 19.3065 5.24963C19.4355 5.80313 19.5 6.23213 19.5 6.53588C19.5 7.72463 19.065 8.55563 18.5505 9.14138C18.036 9.72713 16.6995 10.0864 15.9435 10.4764C15.9435 11.7686 15.396 12.6589 14.5267 13.6526C14.0805 14.1626 13.8345 15.3799 13.8345 15.8674C13.8345 16.1764 13.8832 16.4861 13.8832 17.1701C13.8832 17.8541 13.6095 18.7496 12.6435 18.7496V18.7504Z" fill="#4392CD"/>
</svg>

<svg width="24" height="24" viewBox="0 0 24 24" fill="none"><path fill="#4392cd" fill-rule="evenodd" d="M12.644 18.75h-1.287c-.966 0-1.24-.895-1.24-1.58 0-.683.048-.993.048-1.302 0-.487-.245-1.705-.692-2.215-.869-.993-1.417-1.884-1.417-3.175-.755-.39-2.092-.75-2.606-1.335-.515-.586-.95-1.418-.95-2.607q0-.456.194-1.286.444 1.388 1.367 1.905c.901.505 1.917.88 2.784.88h6.31c.867 0 1.882-.376 2.784-.88q.922-.517 1.367-1.905.194.83.194 1.286c0 1.189-.435 2.02-.95 2.605-.514.586-1.85.945-2.607 1.335 0 1.293-.547 2.183-1.416 3.177-.446.51-.692 1.727-.692 2.214 0 .31.048.62.048 1.303 0 .684-.273 1.58-1.24 1.58" clip-rule="evenodd"/></svg>
